16x16/mimetypes/application-oebps-package+xml.svg

<svg xmlns="http://www.w3.org/2000/svg" width="16" height="16" version="1.1">
 <defs>
  <linearGradient id="linear0" x1="24" x2="44" y1="24" y2="24" gradientTransform="matrix(.325 0 0 .33333 -.3 1.5e-7)" gradientUnits="userSpaceOnUse">
   <stop offset="0" stop-opacity=".102"/>
   <stop offset="1" stop-opacity="0"/>
  </linearGradient>
 </defs>
 <path fill="#dcd4a6" d="m14 13.332v-10.664c0-0.3711-0.289-0.668-0.648-0.668h-11.704c-0.3589 0-0.648 0.2969-0.648 0.668v10.664c0 0.371 0.2891 0.668 0.6484 0.668h11.703c0.36 0 0.649-0.297 0.649-0.668z"/>
 <path fill="url(#linear0)" d="m14 13.332v-10.664c0-0.3711-0.289-0.668-0.648-0.668h-5.852v12h5.852c0.359 0 0.648-0.297 0.648-0.668z"/>
 <path opacity=".5" d="m8 8.5h5v-0.5h-5z"/>
 <path opacity=".5" d="m8 7.5h5v-0.5h-5z"/>
 <path opacity=".5" d="m8 6.5h4.5v-0.5h-4.5z"/>
 <path opacity=".5" d="m8 5.5h3.5v-0.5h-3.5z"/>
 <path opacity=".5" d="m8 4.5h5v-0.5h-5z"/>
 <path opacity=".5" d="m8 3.5h4v-0.5h-4z"/>
 <path opacity=".5" d="m2 3h5v0.5h-5z"/>
 <path opacity=".5" d="m2 4h4.5v0.5h-4.5z"/>
 <path opacity=".5" d="m2 5h4v0.5h-4z"/>
 <path opacity=".5" d="m2 6h3.5v0.5h-3.5z"/>
 <path opacity=".5" d="m2 7h3v0.5h-3z"/>
 <path opacity=".5" d="m2 8h5v0.5h-5z"/>
 <path opacity=".5" d="m2 9h5v0.5h-5z"/>
 <path opacity=".5" d="m2 10h4.5v0.5h-4.5z"/>
 <path opacity=".5" d="m2 11h3.5v0.5h-3.5z"/>
 <path opacity=".5" d="m2 12h5v0.5h-5z"/>
 <path opacity=".5" d="m2 13h4v0.5h-4z"/>
 <path fill="#ff5757" d="m5 2h2v6l-1-2-1 2z"/>
</svg>

<svg xmlns="http://www.w3.org/2000/svg" width="16" height="16"><defs><linearGradient id="a" x1="24" x2="44" y1="24" y2="24" gradientTransform="matrix(.325 0 0 .33333 -.3 0)" gradientUnits="userSpaceOnUse"><stop offset="0" stop-opacity=".102"/><stop offset="1" stop-opacity="0"/></linearGradient></defs><path fill="#dcd4a6" d="M14 13.332V2.668A.656.656 0 0 0 13.352 2H1.648A.656.656 0 0 0 1 2.668v10.664c0 .371.29.668.648.668h11.703c.36 0 .65-.297.65-.668z"/><path fill="url(#a)" d="M14 13.332V2.668A.656.656 0 0 0 13.352 2H7.5v12h5.852a.656.656 0 0 0 .648-.668z"/><path opacity=".5" d="M8 8.5h5V8H8zM8 7.5h5V7H8zM8 6.5h4.5V6H8zM8 5.5h3.5V5H8zM8 4.5h5V4H8zM8 3.5h4V3H8zM2 3h5v.5H2zM2 4h4.5v.5H2zM2 5h4v.5H2zM2 6h3.5v.5H2zM2 7h3v.5H2zM2 8h5v.5H2zM2 9h5v.5H2zM2 10h4.5v.5H2zM2 11h3.5v.5H2zM2 12h5v.5H2zM2 13h4v.5H2z"/><path fill="#ff5757" d="M5 2h2v6L6 6 5 8z"/></svg>
